web/public/images/logo-diecut-mark.svg

<svg width="214" height="45" viewBox="0 0 214 45" fill="none" xmlns="http://www.w3.org/2000/svg">
<path fill-rule="evenodd" clip-rule="evenodd" d="M15.9229 4.34274C14.5382 5.04257 11.6193 6.40506 10.038 7.49195C8.45671 8.57887 8.6533 9.59144 7.96097 10.2913C7.26863 10.9911 5.1916 12.7407 3.80689 13.7904C2.4222 14.8401 2.76837 17.6394 2.4222 18.6892C2.07603 19.7389 1.38368 22.1883 1.03751 23.2381C0.691337 24.2878 1.72985 25.6874 2.4222 27.0871C3.11455 28.4867 4.8454 32.3358 5.53777 33.7354C6.2301 35.1351 8.30713 34.4353 10.038 35.8349C11.7689 37.2346 14.1921 38.9841 15.9229 40.0339C17.6538 41.0836 18.3461 41.0836 20.077 40.0339C21.8079 38.9841 24.2311 37.2346 25.9619 35.8349C27.6928 34.4353 29.7698 35.1351 30.4622 33.7354C31.1545 32.3358 32.8854 28.4867 33.5777 27.0871C34.2701 25.6874 35.3086 24.2878 34.9624 23.2381C34.6162 22.1883 33.9239 19.7389 33.5777 18.6892C33.2316 17.6394 33.5777 14.8401 32.193 13.7904C30.8084 12.7407 29.201 11.4041 28.039 10.2913C26.8769 9.17848 27.3466 8.54171 25.9619 7.49195C24.5772 6.44222 21.4617 5.04257 20.077 4.34274C18.6923 3.64291 17.3076 3.64291 15.9229 4.34274V4.34274Z" fill="white"/>
<path fill-rule="evenodd" clip-rule="evenodd" d="M11.0336 10.4138L17.5126 14.8591C17.6588 14.957 17.8296 15.0106 18.0049 15.0136C18.1804 15.0123 18.3517 14.9585 18.4972 14.8591L24.9811 10.3989C25.2331 10.2176 25.372 9.91531 25.3467 9.60347C25.3215 9.29159 25.1358 9.01628 24.858 8.8789L18.3791 5.6546C18.1333 5.53473 17.8469 5.53473 17.6012 5.6546L11.1419 8.8789C10.8591 9.01702 10.671 9.29766 10.6486 9.61461C10.6263 9.93159 10.7731 10.2365 11.0336 10.4138ZM20.2056 16.2545C20.2061 16.5493 20.3497 16.825 20.5896 16.992L25.7836 20.5602C26.1161 20.7906 26.561 20.7618 26.8618 20.4904L31.2189 16.5734C31.4131 16.399 31.5209 16.1465 31.5133 15.8839C31.5057 15.6212 31.3834 15.3755 31.1795 15.2129L27.0194 11.869C26.717 11.6275 26.2951 11.6114 25.9756 11.8291L20.5896 15.5319C20.3539 15.6959 20.2109 15.965 20.2056 16.2545V16.2545ZM7.287 21.1084C7.49691 21.2979 7.60484 21.5775 7.57748 21.8609C7.5502 22.1459 7.38643 22.3992 7.13928 22.5386L4.03766 24.4075C3.72324 24.5963 3.32626 24.5691 3.03991 24.339C2.75356 24.1089 2.63731 23.7237 2.74776 23.3709L3.89486 19.7429C3.98488 19.4555 4.21297 19.2339 4.50043 19.1549C4.78769 19.0708 5.09747 19.1445 5.31769 19.3492L7.287 21.1084ZM24.1097 21.4871L18.5021 17.6299C18.2041 17.4284 17.8155 17.4284 17.5175 17.6299L11.9099 21.4871C11.6869 21.6423 11.5456 21.8917 11.5259 22.1649C11.5114 22.44 11.6198 22.7072 11.8213 22.8925L17.4239 27.9308C17.5855 28.0756 17.794 28.1554 18.0098 28.155C18.2255 28.155 18.4339 28.0752 18.5957 27.9308L24.1983 22.8925C24.4004 22.708 24.5075 22.4397 24.4888 22.1649C24.4732 21.8917 24.3331 21.6413 24.1097 21.4871V21.4871ZM9.15292 20.4904L4.80075 16.5734C4.60494 16.3946 4.49686 16.1375 4.50535 15.8707C4.51007 15.6077 4.63117 15.3608 4.8352 15.198L8.99535 11.8341C9.29986 11.5933 9.72252 11.5773 10.044 11.7943L15.4251 15.497C15.6748 15.6616 15.8255 15.9428 15.8255 16.2445C15.8255 16.5462 15.6748 16.8274 15.4251 16.992L10.236 20.5602C9.90148 20.7896 9.45599 20.7609 9.15292 20.4904ZM31.4995 26.1168L27.0686 23.4506C26.7395 23.2513 26.3207 23.2917 26.0347 23.5503L20.6191 28.4092C20.3907 28.6143 20.2834 28.9244 20.3356 29.2289C20.3877 29.5334 20.5919 29.789 20.8751 29.9042L28.388 32.9641C28.4911 33.0071 28.6015 33.0292 28.7129 33.0289C29.0616 33.03 29.3781 32.8229 29.5204 32.5006L31.8491 27.258C32.0386 26.8431 31.8876 26.3504 31.4995 26.1168V26.1168ZM32.1149 19.7429L33.262 23.3709H33.2522C33.337 23.6423 33.2888 23.9383 33.1224 24.1678C32.9561 24.3973 32.6915 24.5326 32.4103 24.532C32.2525 24.5326 32.0976 24.4895 31.9623 24.4075L28.8557 22.5386C28.6137 22.3963 28.4556 22.1433 28.4323 21.8609C28.4033 21.5773 28.5115 21.297 28.7228 21.1084L30.6921 19.3442C30.9146 19.1438 31.222 19.0707 31.5094 19.1499C31.7966 19.2324 32.024 19.455 32.1149 19.7429V19.7429ZM15.6811 29.2265C15.7341 28.9232 15.6278 28.6138 15.4005 28.4092L9.98495 23.5503C9.69896 23.2917 9.2801 23.2513 8.95106 23.4506L4.52011 26.1168C4.13647 26.3514 3.98468 26.8379 4.16565 27.253L6.49926 32.4956C6.69259 32.9328 7.19244 33.1374 7.63161 32.9591L15.1396 29.8993C15.4229 29.785 15.6278 29.5305 15.6811 29.2265ZM18.3397 30.7215L24.3657 33.1734C24.6604 33.3001 24.8639 33.5787 24.8974 33.901C24.9356 34.2273 24.7914 34.548 24.5233 34.7332L18.4923 38.9443C18.3478 39.0463 18.1762 39.1019 18 39.1037C17.8239 39.101 17.6526 39.0455 17.5076 38.9443L11.4816 34.7332C11.2125 34.5485 11.0665 34.2281 11.1025 33.901C11.1427 33.5753 11.3536 33.2971 11.6539 33.1734L17.68 30.7215C17.8919 30.6366 18.1278 30.6366 18.3397 30.7215Z" fill="#BF4722"/>
<g clip-path="url(#clip0_660_3898)">
<path d="M48.8756 21.5038H50.4484C51.9897 21.5038 53.1273 21.2504 53.8613 20.7436C54.5953 20.2367 54.9622 19.4402 54.9622 18.3541C54.9622 17.2783 54.5848 16.5128 53.8299 16.0577C53.0854 15.6025 51.9268 15.3749 50.354 15.3749H48.8756V21.5038ZM48.8756 25.4139V34.1185H44V11.4338H50.7C53.8246 11.4338 56.1366 11.9976 57.636 13.1251C59.1354 14.2423 59.885 15.9439 59.885 18.2299C59.885 19.5643 59.5128 20.7539 58.7684 21.7986C58.0239 22.8331 56.9702 23.6451 55.6071 24.2347C59.0672 29.3343 61.3215 32.6289 62.3701 34.1185H56.9597L51.4707 25.4139H48.8756Z" fill="white"/>
<path d="M69.4178 19.8126C68.4008 19.8126 67.6038 20.1332 67.0271 20.7746C66.4504 21.4056 66.1202 22.3055 66.0363 23.4744H72.7677C72.7468 22.3055 72.4375 21.4056 71.8399 20.7746C71.2423 20.1332 70.4348 19.8126 69.4178 19.8126ZM70.094 34.4288C67.2631 34.4288 65.0507 33.6582 63.4569 32.1169C61.8632 30.5756 61.0664 28.393 61.0664 25.5691C61.0664 22.6624 61.8002 20.4177 63.2682 18.8351C64.7467 17.2421 66.7859 16.4456 69.3862 16.4456C71.8713 16.4456 73.8059 17.1438 75.1898 18.5402C76.5739 19.9367 77.2659 21.8659 77.2659 24.3278V26.6242H65.9262C65.9787 27.9689 66.3823 29.0188 67.1372 29.7739C67.8922 30.5291 68.9512 30.9066 70.3142 30.9066C71.3733 30.9066 72.3746 30.798 73.3182 30.5808C74.262 30.3635 75.2476 30.017 76.2751 29.5412V33.203C75.4363 33.6168 74.5399 33.9219 73.5856 34.1185C72.6315 34.3253 71.4677 34.4288 70.094 34.4288Z" fill="white"/>
<path d="M85.4458 34.4288C83.3802 34.4288 81.7551 33.6375 80.5701 32.0548C79.3958 30.4722 78.8086 28.2793 78.8086 25.476C78.8086 22.6314 79.4064 20.4177 80.6017 18.8351C81.8074 17.2421 83.4641 16.4456 85.5716 16.4456C87.784 16.4456 89.4721 17.2938 90.636 18.9902H90.7933C90.5521 17.6972 90.4315 16.5438 90.4315 15.5301V9.97534H95.2441V34.1185H91.5638L90.636 31.8686H90.4315C89.3411 33.5755 87.679 34.4288 85.4458 34.4288ZM87.1286 30.6584C88.3554 30.6584 89.2519 30.3068 89.8181 29.6032C90.3948 28.8999 90.7094 27.7051 90.7617 26.0191V25.507C90.7617 23.6451 90.4682 22.3107 89.881 21.5039C89.3043 20.697 88.3607 20.2936 87.05 20.2936C85.9805 20.2936 85.147 20.7436 84.5494 21.6435C83.9622 22.5331 83.6685 23.8313 83.6685 25.5381C83.6685 27.2449 83.9674 28.5276 84.565 29.3861C85.1626 30.2343 86.0172 30.6584 87.1286 30.6584Z" fill="white"/>
<path d="M113.427 34.1185L112.074 28.0517L110.25 20.3867H110.14L106.931 34.1185H101.772L96.771 16.7715H101.552L103.581 24.452C103.906 25.8278 104.236 27.7259 104.572 30.1464H104.666C104.708 29.3602 104.892 28.1139 105.217 26.407L105.468 25.0882L107.639 16.7715H112.923L114.984 25.0882C115.026 25.3157 115.089 25.6519 115.172 26.0967C115.267 26.5414 115.356 27.0173 115.44 27.5242C115.524 28.0207 115.597 28.512 115.66 28.9982C115.733 29.4741 115.775 29.8568 115.786 30.1464H115.88C115.975 29.4016 116.142 28.3828 116.384 27.0898C116.625 25.7864 116.798 24.9071 116.903 24.452L119.01 16.7715H123.713L118.648 34.1185H113.427Z" fill="white"/>
<path d="M129.093 25.4139C129.093 27.131 129.376 28.4292 129.942 29.3084C130.519 30.1878 131.452 30.6273 132.742 30.6273C134.021 30.6273 134.938 30.1929 135.494 29.3239C136.06 28.4447 136.343 27.1414 136.343 25.4139C136.343 23.6968 136.06 22.4089 135.494 21.5504C134.928 20.6918 134 20.2625 132.71 20.2625C131.431 20.2625 130.508 20.6918 129.942 21.5504C129.376 22.3986 129.093 23.6864 129.093 25.4139ZM141.25 25.4139C141.25 28.2378 140.496 30.4464 138.986 32.0393C137.476 33.6323 135.374 34.4288 132.679 34.4288C130.991 34.4288 129.502 34.0667 128.212 33.3427C126.923 32.6082 125.932 31.5583 125.24 30.1929C124.548 28.8274 124.202 27.2344 124.202 25.4139C124.202 22.5796 124.951 20.3763 126.451 18.804C127.95 17.2317 130.058 16.4456 132.773 16.4456C134.461 16.4456 135.95 16.8076 137.24 17.5317C138.53 18.2558 139.52 19.2954 140.212 20.6504C140.904 22.0055 141.25 23.5934 141.25 25.4139Z" fill="white"/>
<path d="M147.747 25.4139C147.747 27.131 148.03 28.4292 148.597 29.3084C149.173 30.1878 150.107 30.6273 151.396 30.6273C152.675 30.6273 153.593 30.1929 154.148 29.3239C154.715 28.4447 154.998 27.1414 154.998 25.4139C154.998 23.6968 154.715 22.4089 154.148 21.5504C153.582 20.6918 152.654 20.2625 151.365 20.2625C150.085 20.2625 149.163 20.6918 148.597 21.5504C148.03 22.3986 147.747 23.6864 147.747 25.4139ZM159.905 25.4139C159.905 28.2378 159.15 30.4464 157.64 32.0393C156.13 33.6323 154.028 34.4288 151.333 34.4288C149.645 34.4288 148.156 34.0667 146.867 33.3427C145.577 32.6082 144.586 31.5583 143.894 30.1929C143.202 28.8274 142.856 27.2344 142.856 25.4139C142.856 22.5796 143.606 20.3763 145.105 18.804C146.605 17.2317 148.712 16.4456 151.428 16.4456C153.116 16.4456 154.605 16.8076 155.894 17.5317C157.184 18.2558 158.175 19.2954 158.867 20.6504C159.559 22.0055 159.905 23.5934 159.905 25.4139Z" fill="white"/>
<path d="M168.147 34.4288C166.082 34.4288 164.457 33.6375 163.272 32.0548C162.097 30.4722 161.51 28.2793 161.51 25.476C161.51 22.6314 162.108 20.4177 163.303 18.8351C164.509 17.2421 166.166 16.4456 168.273 16.4456C170.486 16.4456 172.174 17.2938 173.337 18.9902H173.495C173.254 17.6972 173.133 16.5438 173.133 15.5301V9.97534H177.946V34.1185H174.265L173.337 31.8686H173.133C172.043 33.5755 170.381 34.4288 168.147 34.4288ZM169.83 30.6584C171.057 30.6584 171.954 30.3068 172.52 29.6032C173.096 28.8999 173.411 27.7051 173.463 26.0191V25.507C173.463 23.6451 173.17 22.3107 172.583 21.5039C172.006 20.697 171.062 20.2936 169.752 20.2936C168.682 20.2936 167.849 20.7436 167.251 21.6435C166.664 22.5331 166.37 23.8313 166.37 25.5381C166.37 27.2449 166.669 28.5276 167.267 29.3861C167.864 30.2343 168.719 30.6584 169.83 30.6584Z" fill="white"/>
<path d="M179.646 40.7904C178.545 40.7904 177.585 40.6767 176.768 40.4491V36.4458C177.606 36.6527 178.372 36.7562 179.064 36.7562C180.133 36.7562 180.899 36.4253 181.36 35.7632C181.822 35.1116 182.052 34.0875 182.052 32.691V11.4338H186.928V32.6599C186.928 35.308 186.314 37.3252 185.088 38.7112C183.861 40.0974 182.047 40.7904 179.646 40.7904Z" fill="white"/>
<path d="M205 27.8189C205 29.867 204.25 31.4807 202.751 32.6598C201.262 33.8391 199.186 34.4287 196.523 34.4287C194.069 34.4287 191.899 33.9735 190.011 33.0633V28.5947C191.563 29.2773 192.874 29.7583 193.943 30.0376C195.023 30.3169 196.009 30.4566 196.9 30.4566C197.969 30.4566 198.787 30.2549 199.354 29.8515C199.93 29.448 200.219 28.8481 200.219 28.0516C200.219 27.6068 200.093 27.2138 199.841 26.8723C199.589 26.5207 199.217 26.1844 198.724 25.8638C198.242 25.5431 197.251 25.0311 195.752 24.3277C194.347 23.676 193.293 23.0502 192.591 22.4502C191.888 21.8503 191.327 21.152 190.908 20.3555C190.488 19.5591 190.279 18.6281 190.279 17.5626C190.279 15.5559 190.965 13.9784 192.339 12.8302C193.723 11.682 195.631 11.1079 198.064 11.1079C199.259 11.1079 200.397 11.2476 201.477 11.5268C202.567 11.8061 203.705 12.1992 204.89 12.7061L203.317 16.4455C202.09 15.949 201.073 15.6024 200.266 15.4059C199.469 15.2094 198.683 15.1111 197.907 15.1111C196.984 15.1111 196.276 15.3231 195.783 15.7472C195.291 16.1714 195.044 16.7248 195.044 17.4075C195.044 17.8316 195.144 18.204 195.343 18.5246C195.542 18.835 195.857 19.1401 196.287 19.4401C196.727 19.7297 197.76 20.2573 199.385 21.0227C201.534 22.0365 203.008 23.0554 203.805 24.0794C204.601 25.0932 205 26.3396 205 27.8189Z" fill="white"/>
</g>
<defs>
<clipPath id="clip0_660_3898">
<rect width="161" height="31" fill="white" transform="translate(44 9.97534)"/>
</clipPath>
</defs>
</svg>

<svg fill="none" height="45" width="214" xmlns="http://www.w3.org/2000/svg"><clipPath id="a"><path d="M44 9.975h161v31H44z"/></clipPath><path clip-rule="evenodd" d="M15.923 4.343c-1.385.7-4.304 2.062-5.885 3.149-1.581 1.087-1.385 2.1-2.077 2.8-.692.7-2.77 2.449-4.154 3.498-1.385 1.05-1.039 3.85-1.385 4.9-.346 1.049-1.038 3.498-1.384 4.548-.347 1.05.692 2.45 1.384 3.85.693 1.399 2.423 5.248 3.116 6.647.692 1.4 2.77.7 4.5 2.1 1.73 1.4 4.154 3.15 5.885 4.199 1.73 1.05 2.423 1.05 4.154 0 1.73-1.05 4.154-2.8 5.885-4.2 1.73-1.399 3.808-.699 4.5-2.099.692-1.4 2.423-5.248 3.116-6.648.692-1.4 1.73-2.8 1.384-3.849-.346-1.05-1.038-3.5-1.384-4.549-.346-1.05 0-3.849-1.385-4.899-1.385-1.05-2.992-2.386-4.154-3.499s-.692-1.75-2.077-2.8c-1.385-1.049-4.5-2.448-5.885-3.148s-2.77-.7-4.154 0z" fill="#fff" fill-rule="evenodd"/><path clip-rule="evenodd" d="m11.034 10.414 6.479 4.445a.913.913 0 0 0 .492.155.884.884 0 0 0 .492-.155l6.484-4.46a.891.891 0 0 0-.123-1.52l-6.479-3.224a.886.886 0 0 0-.778 0l-6.46 3.224a.89.89 0 0 0-.108 1.535zm9.172 5.84a.9.9 0 0 0 .384.738l5.194 3.568a.868.868 0 0 0 1.078-.07l4.357-3.917a.892.892 0 0 0-.04-1.36l-4.16-3.344a.878.878 0 0 0-1.043-.04l-5.386 3.703a.9.9 0 0 0-.384.723zM7.287 21.108c.21.19.318.47.29.753a.873.873 0 0 1-.438.678l-3.101 1.869c-.315.188-.712.161-.998-.069s-.403-.615-.292-.968l1.147-3.628a.881.881 0 0 1 .605-.588.849.849 0 0 1 .818.194zm16.823.38-5.608-3.858a.877.877 0 0 0-.984 0l-5.608 3.857a.905.905 0 0 0-.384.678.923.923 0 0 0 .295.728l5.603 5.038a.875.875 0 0 0 1.172 0l5.602-5.039a.902.902 0 0 0 .29-.727.884.884 0 0 0-.378-.678zM9.153 20.49 4.8 16.573a.912.912 0 0 1-.296-.702.88.88 0 0 1 .33-.673l4.16-3.364a.887.887 0 0 1 1.049-.04l5.381 3.703c.25.165.4.446.4.748s-.15.582-.4.747l-5.189 3.568c-.335.23-.78.2-1.083-.07zM31.5 26.117l-4.431-2.666a.868.868 0 0 0-1.034.1l-5.416 4.858a.898.898 0 0 0 .256 1.495l7.513 3.06a.881.881 0 0 0 1.132-.464l2.33-5.242a.898.898 0 0 0-.35-1.141zm.615-6.374 1.147 3.628h-.01a.901.901 0 0 1-.13.797.877.877 0 0 1-1.16.24l-3.106-1.87a.868.868 0 0 1-.424-.677.888.888 0 0 1 .29-.753l1.97-1.764c.223-.2.53-.273.817-.194a.896.896 0 0 1 .606.593zM15.68 29.226a.893.893 0 0 0-.28-.817L9.985 23.55a.868.868 0 0 0-1.034-.1l-4.43 2.667a.908.908 0 0 0-.355 1.136l2.333 5.243a.877.877 0 0 0 1.133.463l7.508-3.06a.89.89 0 0 0 .541-.672zm2.659 1.495 6.026 2.452a.89.89 0 0 1 .531.728.886.886 0 0 1-.374.832l-6.03 4.211a.869.869 0 0 1-.493.16.884.884 0 0 1-.492-.16l-6.026-4.21a.891.891 0 0 1 .172-1.56l6.026-2.452a.886.886 0 0 1 .66 0z" fill="#bf4722" fill-rule="evenodd"/><g clip-path="url(#a)" fill="#fff"><path d="M48.876 21.504h1.572c1.542 0 2.68-.254 3.413-.76.734-.507 1.101-1.304 1.101-2.39 0-1.076-.377-1.841-1.132-2.296-.745-.456-1.903-.683-3.476-.683h-1.478zm0 3.91v8.704H44V11.434h6.7c3.125 0 5.437.564 6.936 1.691 1.5 1.117 2.249 2.819 2.249 5.105 0 1.334-.372 2.524-1.117 3.569-.744 1.034-1.798 1.846-3.16 2.436 3.46 5.1 5.714 8.394 6.762 9.883h-5.41l-5.49-8.704z"/><path d="M69.418 19.813c-1.017 0-1.814.32-2.39.962-.578.63-.908 1.53-.992 2.7h6.732c-.021-1.17-.33-2.07-.928-2.7-.598-.642-1.405-.962-2.422-.962zm.676 14.616c-2.83 0-5.043-.77-6.637-2.312-1.594-1.541-2.39-3.724-2.39-6.548 0-2.907.733-5.151 2.201-6.734 1.479-1.593 3.518-2.39 6.118-2.39 2.485 0 4.42.699 5.804 2.095 1.384 1.397 2.076 3.326 2.076 5.788v2.296h-11.34c.053 1.345.456 2.395 1.211 3.15.755.755 1.814 1.133 3.177 1.133 1.06 0 2.06-.109 3.004-.326a15.17 15.17 0 0 0 2.957-1.04v3.662c-.839.414-1.735.719-2.69.915-.953.207-2.117.31-3.491.31zM85.446 34.429c-2.066 0-3.69-.791-4.876-2.374-1.174-1.583-1.761-3.776-1.761-6.579 0-2.845.597-5.058 1.793-6.64 1.205-1.594 2.862-2.39 4.97-2.39 2.212 0 3.9.848 5.064 2.544h.157c-.24-1.293-.361-2.446-.361-3.46V9.975h4.812v24.143h-3.68l-.928-2.25h-.204c-1.09 1.707-2.753 2.56-4.986 2.56zm1.683-3.77c1.226 0 2.123-.352 2.69-1.056.576-.703.89-1.898.943-3.584v-.512c0-1.862-.294-3.196-.881-4.003-.577-.807-1.52-1.21-2.831-1.21-1.07 0-1.903.45-2.5 1.35-.588.89-.882 2.187-.882 3.894s.3 2.99.897 3.848c.598.848 1.452 1.272 2.564 1.272zM113.427 34.118l-1.353-6.066-1.824-7.665h-.11l-3.209 13.731h-5.159l-5.001-17.347h4.781l2.029 7.681c.325 1.376.655 3.274.991 5.694h.094c.042-.786.226-2.032.551-3.739l.251-1.319 2.171-8.317h5.284l2.061 8.317.188 1.009a38.463 38.463 0 0 1 .488 2.901c.073.476.115.859.126 1.148h.094c.095-.744.262-1.763.504-3.056a74.89 74.89 0 0 1 .519-2.638l2.107-7.68h4.703l-5.065 17.347zM129.093 25.414c0 1.717.283 3.015.849 3.894.577.88 1.51 1.32 2.8 1.32 1.279 0 2.196-.435 2.752-1.304.566-.88.849-2.183.849-3.91 0-1.717-.283-3.005-.849-3.864-.566-.858-1.494-1.287-2.784-1.287-1.279 0-2.202.429-2.768 1.287-.566.849-.849 2.136-.849 3.864zm12.157 0c0 2.824-.754 5.032-2.264 6.625-1.51 1.593-3.612 2.39-6.307 2.39-1.688 0-3.177-.362-4.467-1.086-1.289-.735-2.28-1.785-2.972-3.15-.692-1.366-1.038-2.959-1.038-4.78 0-2.833.749-5.037 2.249-6.609 1.499-1.572 3.607-2.358 6.322-2.358 1.688 0 3.177.362 4.467 1.086s2.28 1.763 2.972 3.118c.692 1.356 1.038 2.943 1.038 4.764zM147.747 25.414c0 1.717.283 3.015.85 3.894.576.88 1.51 1.32 2.799 1.32 1.279 0 2.197-.435 2.752-1.304.567-.88.85-2.183.85-3.91 0-1.717-.283-3.005-.85-3.864-.566-.858-1.494-1.287-2.783-1.287-1.28 0-2.202.429-2.768 1.287-.567.849-.85 2.136-.85 3.864zm12.158 0c0 2.824-.755 5.032-2.265 6.625-1.51 1.593-3.612 2.39-6.307 2.39-1.688 0-3.177-.362-4.466-1.086-1.29-.735-2.281-1.785-2.973-3.15-.692-1.366-1.038-2.959-1.038-4.78 0-2.833.75-5.037 2.249-6.609 1.5-1.572 3.607-2.358 6.323-2.358 1.688 0 3.177.362 4.466 1.086 1.29.724 2.281 1.763 2.973 3.118.692 1.356 1.038 2.943 1.038 4.764zM168.147 34.429c-2.065 0-3.69-.791-4.875-2.374-1.175-1.583-1.762-3.776-1.762-6.579 0-2.845.598-5.058 1.793-6.64 1.206-1.594 2.863-2.39 4.97-2.39 2.213 0 3.901.848 5.064 2.544h.158c-.241-1.293-.362-2.446-.362-3.46V9.975h4.813v24.143h-3.681l-.928-2.25h-.204c-1.09 1.707-2.752 2.56-4.986 2.56zm1.683-3.77c1.227 0 2.124-.352 2.69-1.056.576-.703.891-1.898.943-3.584v-.512c0-1.862-.293-3.196-.88-4.003-.577-.807-1.521-1.21-2.831-1.21-1.07 0-1.903.45-2.501 1.35-.587.89-.881 2.187-.881 3.894s.299 2.99.897 3.848c.597.848 1.452 1.272 2.563 1.272z"/><path d="M179.646 40.79c-1.101 0-2.061-.113-2.878-.34v-4.004c.838.207 1.604.31 2.296.31 1.069 0 1.835-.33 2.296-.993.462-.651.692-1.676.692-3.072V11.434h4.876V32.66c0 2.648-.614 4.665-1.84 6.051-1.227 1.386-3.041 2.08-5.442 2.08zM205 27.819c0 2.048-.75 3.662-2.249 4.84-1.489 1.18-3.565 1.77-6.228 1.77-2.454 0-4.624-.456-6.512-1.366v-4.468c1.552.682 2.863 1.163 3.932 1.443 1.08.279 2.066.419 2.957.419 1.069 0 1.887-.202 2.454-.606.576-.403.865-1.003.865-1.8 0-.444-.126-.837-.378-1.179-.252-.351-.624-.688-1.117-1.008-.482-.32-1.473-.833-2.972-1.536-1.405-.652-2.459-1.278-3.161-1.878a7.05 7.05 0 0 1-1.683-2.095c-.42-.796-.629-1.727-.629-2.792 0-2.007.686-3.585 2.06-4.733 1.384-1.148 3.292-1.722 5.725-1.722 1.195 0 2.333.14 3.413.419 1.09.28 2.228.672 3.413 1.18l-1.573 3.738c-1.227-.496-2.244-.843-3.051-1.04a9.827 9.827 0 0 0-2.359-.294c-.923 0-1.631.212-2.124.636-.492.424-.739.978-.739 1.66 0 .425.1.797.299 1.118.199.31.514.615.944.915.44.29 1.473.817 3.098 1.583 2.149 1.013 3.623 2.032 4.42 3.056.796 1.014 1.195 2.26 1.195 3.74z"/></g></svg>
